remix/Logos/mastercard-fill.svg

<svg viewBox="0 0 24 24" fill="currentColor" xmlns="http://www.w3.org/2000/svg"><path d="M12.001 6.65407C13.5816 7.89878 14.5965 9.82972 14.5965 11.9977C14.5965 14.1657 13.5816 16.0966 12.001 17.3413C10.4204 16.0966 9.40547 14.1657 9.40547 11.9977C9.40547 9.82972 10.4204 7.89878 12.001 6.65407ZM11.1316 6.0717C9.46024 7.50229 8.40098 9.62742 8.40098 12C8.40098 14.371 9.45891 16.4949 11.1285 17.9255C10.1444 18.4795 9.00847 18.7955 7.79873 18.7955C4.04443 18.7955 1.00098 15.752 1.00098 11.9977C1.00098 8.24341 4.04443 5.19995 7.79873 5.19995C9.00976 5.19995 10.1468 5.51663 11.1316 6.0717ZM12.8735 17.9255C14.543 16.4949 15.601 14.371 15.601 12C15.601 9.62742 14.5417 7.50229 12.8703 6.0717C13.8551 5.51663 14.9922 5.19995 16.2032 5.19995C19.9575 5.19995 23.001 8.24341 23.001 11.9977C23.001 15.752 19.9575 18.7955 16.2032 18.7955C14.9935 18.7955 13.8576 18.4795 12.8735 17.9255Z"/></svg>

<svg viewBox="0 0 24 24" xmlns="http://www.w3.org/2000/svg"><path fill="none" d="M0 0h24v24H0Z"/><path d="M12 6.65v0c1.64 1.28 2.59 3.25 2.596 5.34v0c0 2.08-.96 4.05-2.596 5.34v0c-1.65-1.29-2.6-3.26-2.596-5.343l0 0c-.01-2.09.95-4.06 2.59-5.35Zm-.87-.59l0 0C9.39 7.54 8.39 9.7 8.4 11.98v0c-.01 2.27.99 4.44 2.72 5.92v0c-3.28 1.83-7.42.67-9.26-2.61 -1.84-3.28-.68-7.42 2.6-9.26 2.06-1.17 4.59-1.17 6.65 0Zm1.74 11.85h0c1.73-1.49 2.73-3.65 2.72-5.93h-.001c0-2.29-1-4.45-2.73-5.928l0-.001c3.27-1.84 7.41-.68 9.25 2.59 1.83 3.27.67 7.41-2.6 9.25 -2.07 1.16-4.6 1.16-6.66 0Z"/></svg>
